icons/svg/education/training.svg

<?xml version="1.0" encoding="UTF-8" standalone="no"?>
<!-- Created with Inkscape (http://www.inkscape.org/) -->

<svg
   xmlns:dc="http://purl.org/dc/elements/1.1/"
   xmlns:cc="http://creativecommons.org/ns#"
   xmlns:rdf="http://www.w3.org/1999/02/22-rdf-syntax-ns#"
   xmlns:svg="http://www.w3.org/2000/svg"
   xmlns="http://www.w3.org/2000/svg"
   xmlns:sodipodi="http://sodipodi.sourceforge.net/DTD/sodipodi-0.dtd"
   xmlns:inkscape="http://www.inkscape.org/namespaces/inkscape"
   version="1.0"
   width="580"
   height="580"
   id="svg2"
   sodipodi:version="0.32"
   inkscape:version="0.91 r"
   sodipodi:docname="training.svg"
   inkscape:output_extension="org.inkscape.output.svg.inkscape">
  <defs
     id="defs22">
    <inkscape:perspective
       sodipodi:type="inkscape:persp3d"
       inkscape:vp_x="0 : 290 : 1"
       inkscape:vp_y="0 : 1000 : 0"
       inkscape:vp_z="580 : 290 : 1"
       inkscape:persp3d-origin="290 : 193.33333 : 1"
       id="perspective24" />
    <marker
       viewBox="0 0 10 10"
       refY="5"
       refX="10"
       orient="auto"
       markerWidth="4"
       markerUnits="strokeWidth"
       markerHeight="3"
       id="ArrowStart">
      <path
         id="path3568"
         d="M 10 0 L 0 5 L 10 10 z" />
    </marker>
    <marker
       viewBox="0 0 10 10"
       refY="5"
       refX="0"
       orient="auto"
       markerWidth="4"
       markerUnits="strokeWidth"
       markerHeight="3"
       id="ArrowEnd">
      <path
         id="path3565"
         d="M 0 0 L 10 5 L 0 10 z" />
    </marker>
    <inkscape:perspective
       id="perspective2683"
       inkscape:persp3d-origin="306.082 : 204.39034 : 1"
       inkscape:vp_z="612.164 : 306.58551 : 1"
       inkscape:vp_y="0 : 1000 : 0"
       inkscape:vp_x="0 : 306.58551 : 1"
       sodipodi:type="inkscape:persp3d" />
    <marker
       viewBox="0 0 10 10"
       refY="5"
       refX="10"
       orient="auto"
       markerWidth="4"
       markerUnits="strokeWidth"
       markerHeight="3"
       id="marker2959">
      <path
         id="path2626"
         d="M 10 0 L 0 5 L 10 10 z" />
    </marker>
    <marker
       viewBox="0 0 10 10"
       refY="5"
       refX="0"
       orient="auto"
       markerWidth="4"
       markerUnits="strokeWidth"
       markerHeight="3"
       id="marker2956">
      <path
         id="path2623"
         d="M 0 0 L 10 5 L 0 10 z" />
    </marker>
    <inkscape:perspective
       id="perspective2953"
       inkscape:persp3d-origin="306.082 : 204.39034 : 1"
       inkscape:vp_z="612.164 : 306.58551 : 1"
       inkscape:vp_y="0 : 1000 : 0"
       inkscape:vp_x="0 : 306.58551 : 1"
       sodipodi:type="inkscape:persp3d" />
  </defs>
  <metadata
     id="metadata10">
    <rdf:RDF>
      <cc:Work
         rdf:about="">
        <dc:format>image/svg+xml</dc:format>
        <dc:type
           rdf:resource="http://purl.org/dc/dcmitype/StillImage" />
        <cc:license
           rdf:resource="http://web.resource.org/cc/PublicDomain" />
        <dc:language>en</dc:language>
        <dc:title></dc:title>
      </cc:Work>
    </rdf:RDF>
  </metadata>
  <sodipodi:namedview
     inkscape:window-height="1021"
     inkscape:window-width="1680"
     inkscape:pageshadow="2"
     inkscape:pageopacity="0.0"
     guidetolerance="10.0"
     gridtolerance="10.0"
     objecttolerance="10.0"
     borderopacity="1.0"
     bordercolor="#666666"
     pagecolor="#ffffff"
     id="base"
     showgrid="false"
     inkscape:zoom="0.5"
     inkscape:cx="191.87784"
     inkscape:cy="245.21188"
     inkscape:window-x="0"
     inkscape:window-y="0"
     inkscape:current-layer="svg2"
     inkscape:window-maximized="1" />
  <g
     id="g1327">
    <path
       d="M 66.275,1.768 C 24.94,1.768 1.704,23.139 1.704,66.804 L 1.704,516.927 C 1.704,557.771 22.598,579.156 63.896,579.156 L 515.92,579.156 C 557.227,579.156 578.149,558.84 578.149,516.927 L 578.149,66.804 C 578.149,24.203 557.227,1.768 514.627,1.768 C 514.624,1.768 66.133,1.625 66.275,1.768 z"
       style="fill:#111111;stroke:#eeeeee;stroke-width:3.40799999"
       id="path1329" />
  </g>
  <g
     id="g2319"
     transform="translate(879.29125,36.805119)">
    <path
       id="path2323"
       style="fill:#ffffff;stroke:none"
       d="" />
  </g>
  <g
     id="g2325"
     transform="translate(879.29125,36.805119)">
    <path
       id="path2329"
       style="fill:#ffffff;stroke:none"
       d="" />
  </g>
  <path
     style="fill:#ffffff;fill-opacity:1"
     d="m 116.91688,517.89696 c -5.62464,-6.21205 -5.99575,-13.90379 -6.85215,-142.03437 -0.7605,-113.77795 -1.60711,-135.46666 -5.28764,-135.46666 -24.774682,-0.55465 -20.411953,83.84513 -20.411953,135.51746 -8.581421,8.00053 -31.183563,10.94609 -39.556582,-4.86194 1.180292,-64.15495 -2.66134,-136.25269 11.285513,-170.47654 15.565271,-22.38439 47.740062,-33.00498 59.149652,-31.19108 10.3962,7.44536 35.8877,23.91369 80.55478,-0.31528 31.93935,0.57413 143.55506,-5.92967 154.04264,12.13946 5.31563,9.93238 3.48309,23.36014 -4.16913,30.54906 -27.82082,8.94897 -65.00019,6.78742 -123.88383,6.78742 l 0,144.73502 c 0,141.69776 -0.13572,144.90764 -6.46979,152.96008 -8.37734,10.65002 -27.04296,11.51277 -35.96883,1.66253 -12.90553,-24.79205 3.17403,-134.98273 -13.75075,-141.71509 -13.85257,9.1801 -2.88245,90.01746 -13.75077,141.71514 -8.08589,8.92325 -26.84953,8.92045 -34.93116,-0.006 z M 249.63966,248.80705 c 0,0 85.7465,3.70297 117.38663,-11.59276 12.24683,-12.34034 13.72092,-26.27786 13.71035,-41.18077 -0.0159,-21.34433 -3.7369,-48.73686 -36.75604,-54.58541 -113.36217,0.13413 -120.98878,0 -120.98878,0 0,0 15.33027,-24.85737 7.27504,-54.792669 l -2.35433,-7.804085 297.27892,0 0,303.010244 -275.55179,0 z"
     id="path4250"
     inkscape:connector-curvature="0"
     sodipodi:nodetypes="cscccccccccsscccccccccccccccc" />
  <circle
     style="color:#000000;clip-rule:nonzero;display:inline;overflow:visible;visibility:visible;opacity:1;isolation:auto;mix-blend-mode:normal;color-interpolation:sRGB;color-interpolation-filters:linearRGB;solid-color:#000000;solid-opacity:1;fill:#ffffff;fill-opacity:1;fill-rule:evenodd;stroke:none;stroke-width:15;stroke-linecap:round;stroke-linejoin:round;stroke-miterlimit:4;stroke-dasharray:none;stroke-dashoffset:0;stroke-opacity:1;marker:none;color-rendering:auto;image-rendering:auto;shape-rendering:auto;text-rendering:auto;enable-background:accumulate"
     id="path4252"
     cx="153.27118"
     cy="105.76504"
     r="50.552624" />
  <path
     style="color:#000000;font-style:normal;font-variant:normal;font-weight:normal;font-stretch:normal;font-size:medium;line-height:normal;font-family:sans-serif;text-indent:0;text-align:start;text-decoration:none;text-decoration-line:none;text-decoration-style:solid;text-decoration-color:#000000;letter-spacing:normal;word-spacing:normal;text-transform:none;direction:ltr;block-progression:tb;writing-mode:lr-tb;baseline-shift:baseline;text-anchor:start;white-space:normal;clip-rule:nonzero;display:inline;overflow:visible;visibility:visible;opacity:1;isolation:auto;mix-blend-mode:normal;color-interpolation:sRGB;color-interpolation-filters:linearRGB;solid-color:#000000;solid-opacity:1;fill:#ffffff;fill-opacity:1;fill-rule:evenodd;stroke:none;stroke-width:45;stroke-linecap:butt;stroke-linejoin:miter;stroke-miterlimit:4;stroke-dasharray:none;stroke-dashoffset:0;stroke-opacity:1;color-rendering:auto;image-rendering:auto;shape-rendering:auto;text-rendering:auto;enable-background:accumulate"
     d="m 319.75783,410.6882 -54.13968,109.37149 36.74925,0 54.13968,-109.37149 -36.74925,0 z m 86.87223,0 55.23749,109.37149 36.8965,0 -55.2375,-109.37149 -36.89649,0 z"
     id="path4254"
     inkscape:connector-curvature="0" />
</svg>

<svg width="580" height="580" viewBox="0 0 580 580" fill="none" xmlns="http://www.w3.org/2000/svg">
<g clip-path="url(#clip0)">
<path d="M66.2751 1.76802C24.9401 1.76802 1.7041 23.139 1.7041 66.804V516.927C1.7041 557.771 22.5981 579.156 63.8961 579.156H515.92C557.227 579.156 578.149 558.84 578.149 516.927V66.804C578.149 24.203 557.227 1.76802 514.627 1.76802C514.624 1.76802 66.1331 1.62502 66.2751 1.76802Z" fill="#111111" stroke="#EEEEEE" stroke-width="3.408"/>
<path d="M116.917 517.897C111.292 511.685 110.921 503.993 110.065 375.863C109.304 262.085 108.458 240.396 104.777 240.396C80.0024 239.841 84.3652 324.241 84.3652 375.913C75.7838 383.914 53.1816 386.859 44.8086 371.051C45.9889 306.896 42.1473 234.799 56.0941 200.575C71.6594 178.19 103.834 167.57 115.244 169.384C125.64 176.829 151.131 193.297 195.799 169.069C227.738 169.643 339.354 163.139 349.841 181.208C355.157 191.14 353.324 204.568 345.672 211.757C317.851 220.706 280.672 218.544 221.788 218.544V363.279C221.788 504.977 221.652 508.187 215.318 516.24C206.941 526.89 188.275 527.752 179.35 517.902C166.444 493.11 182.524 382.919 165.599 376.187C151.746 385.367 162.716 466.204 151.848 517.902C143.762 526.825 124.999 526.823 116.917 517.896V517.897ZM249.64 248.807C249.64 248.807 335.386 252.51 367.026 237.214C379.273 224.874 380.747 210.936 380.737 196.033C380.721 174.689 377 147.297 343.981 141.448C230.618 141.582 222.992 141.448 222.992 141.448C222.992 141.448 238.322 116.591 230.267 86.6554L227.913 78.8513H525.191V381.862H249.64V248.807Z" fill="white"/>
<path d="M153.271 156.318C181.191 156.318 203.824 133.684 203.824 105.765C203.824 77.8456 181.191 55.2124 153.271 55.2124C125.352 55.2124 102.719 77.8456 102.719 105.765C102.719 133.684 125.352 156.318 153.271 156.318Z" fill="white"/>
<path fill-rule="evenodd" clip-rule="evenodd" d="M319.758 410.688L265.618 520.06H302.367L356.507 410.688H319.758V410.688ZM406.63 410.688L461.868 520.06H498.764L443.527 410.688H406.63V410.688Z" fill="white"/>
</g>
<defs>
<clipPath id="clip0">
<path d="M0 0H580V580H0V0Z" fill="white"/>
</clipPath>
</defs>
</svg>
